mono-glyphs/bluetooth-w.svg

<svg xmlns="http://www.w3.org/2000/svg" width="1024" height="1024" fill="none" viewBox="0 0 1024 1024">
  <path fill="#fff" d="M480 582.5 277 760c-5.667 5.333-12.667 8-21 8-9 0-16.583-3.167-22.75-9.5-6.167-6.333-9.25-14-9.25-23 0-9.333 3.667-17.167 11-23.5l228.5-200L235 312c-7.333-6.333-11-14.333-11-24 0-9 3.083-16.583 9.25-22.75C239.417 259.083 247 256 256 256c8.333 0 15.333 2.667 21 8l203 177.5V32c0-8.667 3.25-16.167 9.75-22.5 6.5-6.333 14.083-9.5 22.75-9.5 8.333 0 15.667 3.167 22 9.5l256 256c6.333 6.333 9.5 13.667 9.5 22 0 10-3.667 18.167-11 24.5L560.5 512 789 712c4 3.667 6.833 7.333 8.5 11 1.667 3.667 2.5 8.167 2.5 13.5 0 8.333-3.167 15.667-9.5 22l-256 256c-6.333 6.33-13.833 9.5-22.5 9.5s-16.167-3.17-22.5-9.5c-6.333-6.33-9.5-13.83-9.5-22.5V582.5ZM544 109v332.5l177-155L544 109Zm0 473.5v332l177-177-177-155Z"/>
</svg>

<svg width="1024" height="1024" viewBox="0 0 1024 1024" fill="none" xmlns="http://www.w3.org/2000/svg">
<mask id="mask0_47_1387" style="mask-type:luminance" maskUnits="userSpaceOnUse" x="224" y="0" width="576" height="1024">
<path d="M800 0H224V1024H800V0Z" fill="white"/>
</mask>
<g mask="url(#mask0_47_1387)">
<path d="M480 582.5L277 760C271.333 765.333 264.333 768 256 768C247 768 239.417 764.833 233.25 758.5C227.083 752.167 224 744.5 224 735.5C224 726.167 227.667 718.333 235 712L463.5 512L235 312C227.667 305.667 224 297.667 224 288C224 279 227.083 271.417 233.25 265.25C239.417 259.083 247 256 256 256C264.333 256 271.333 258.667 277 264L480 441.5V32C480 23.3334 483.25 15.8334 489.75 9.5C496.25 3.16669 503.833 0 512.5 0C520.833 0 528.167 3.16669 534.5 9.5L790.5 265.5C796.833 271.833 800 279.167 800 287.5C800 297.5 796.333 305.667 789 312L560.5 512L789 712C793 715.667 795.833 719.333 797.5 723C799.167 726.667 800 731.167 800 736.5C800 744.833 796.833 752.167 790.5 758.5L534.5 1014.5C528.167 1020.83 520.667 1024 512 1024C503.333 1024 495.833 1020.83 489.5 1014.5C483.167 1008.17 480 1000.67 480 992V582.5ZM544 109V441.5L721 286.5L544 109ZM544 582.5V914.5L721 737.5L544 582.5Z" fill="white"/>
</g>
</svg>
